!!!!SEGMENT: pl-sa--l-1643--107_anonim--hodie-maria-virgo-celos-ascendit.krn
!!!cenid: 16xx:1465
!!!COM: Anonim
!!!COM-rismid: pe30004985
!!!CDT:
!!!CNT:
!!!OTL: Hodie Maria virgo celos ascendit
!!!PDT:
!!!AGN: Sacred
!!!SMS-siglum: PL-SA
!!!SMS-shelfmark: L 1643
!!!SMS-shelfwork: 107 W
!!!SMS-variant:
!!!SMS-altvar:
!!!NIFC-rismid: 1001064252
!!!URL-scan: http://repozytorium.nifc.pl/skany/pl-sa-nut--l1643
!!!ONB-nifc: UWAGA: 8 ksiąg. Primi chori: 1mus Cantus (x), C 2dus (34), C 3tius (x), Bassus (x); Secondi chori: Primus Cantus (x), C 2dus (x), Altus (x), Bassus (44). UWAGA: Nie dodawać pustych linii, chyba że w rękopisie pojawiają się dodatkowe oznaczenia dotyczące pełnej obsady (a 4, a 8 itp.)
!!!key: c:dor
**kern	**text	**kern	**kern	**kern	**kern	**kern	**kern	**text	**kern
*part8	*part8	*part7	*part6	*part5	*part4	*part3	*part2	*part2	*part1
*staff8	*staff8	*staff7	*staff6	*staff5	*staff4	*staff3	*staff2	*staff2	*staff1
*I"Baſsus 2di Chori	*	*I"Altus secundi Chori	*I"Cantus 2dus Secundi Chori	*I"Primus Cantus 2di Chori	*I"Bassus Primi Chori.	*I"Cantus 3tius Primi Chori	*I"Cantus 2dus Primi Chori.	*	*I"Im(us) Cantus Primi Chori
*I'II Coro B	*	*I'II Coro A	*I'II Coro S 2	*I'II Coro S 1	*I'I Coro B	*I'I Coro S 3	*I'I Coro S 2	*	*I'I Coro S 1
*Ibass	*	*Ialto	*Isoprn	*Isoprn	*Ibass	*Isoprn	*Isoprn	*	*Isoprn
*ICvox	*	*ICvox	*ICvox	*ICvox	*ICvox	*ICvox	*ICvox	*	*ICvox
*clefC3	*	*clefC2	*clefC1	*clefG2	*clefC3	*clefC2	*clefC1	*	*clefG2
*k[]	*	*k[]	*k[]	*k[]	*k[]	*k[]	*k[]	*	*k[]
*c:dor	*	*c:dor	*c:dor	*c:dor	*c:dor	*c:dor	*c:dor	*	*c:dor
*M2/2	*	*M2/2	*M2/2	*M2/2	*M2/2	*M2/2	*M2/2	*	*M2/2
*met(C|)	*	*met(C|)	*met(C|)	*met(C|)	*met(C|)	*met(C|)	*met(C|)	*	*met(C|)
=1-	=1-	=1-	=1-	=1-	=1-	=1-	=1-	=1-	=1-
!LO:TX:a:t=Pro Feſto Asumprionis C M 8 V	!	!	!	!	!	!	!	!	!
00r	.	1ryy	1ryy	1ryy	1ryy	1ryy	2.a\	Ho-	1ryy
.	.	.	.	.	.	.	4a\	-di-	.
=2-	=2-	=2-	=2-	=2-	=2-	=2-	=2-	=2-	=2-
.	.	1ryy	1ryy	1ryy	1ryy	1ryy	2a\	-e	1ryy
.	.	.	.	.	.	.	2dd\	ma-	.
=3-	=3-	=3-	=3-	=3-	=3-	=3-	=3-	=3-	=3-
.	.	1ryy	1ryy	1ryy	1ryy	1ryy	1cc	-ri-	1ryy
=4-	=4-	=4-	=4-	=4-	=4-	=4-	=4-	=4-	=4-
.	.	1ryy	1ryy	1ryy	1ryy	1ryy	2dd\	-a	1ryy
.	.	.	.	.	.	.	2.cc\	uir-	.
=5-	=5-	=5-	=5-	=5-	=5-	=5-	=5-	=5-	=5-
1r	.	1ryy	1ryy	1ryy	1ryy	1ryy	.	.	1ryy
.	.	.	.	.	.	.	8b\L	.	.
.	.	.	.	.	.	.	8a\J	.	.
.	.	.	.	.	.	.	2b\	.	.
=6-	=6-	=6-	=6-	=6-	=6-	=6-	=6-	=6-	=6-
2.f\	Ho-	1ryy	1ryy	1ryy	1ryy	1ryy	1cc	-go	1ryy
4f\	-di-	.	.	.	.	.	.	.	.
=7-	=7-	=7-	=7-	=7-	=7-	=7-	=7-	=7-	=7-
2d\	-e	1ryy	1ryy	1ryy	1ryy	1ryy	00r	.	1ryy
2d\	Ma-	.	.	.	.	.	.	.	.
=8-	=8-	=8-	=8-	=8-	=8-	=8-	=8-	=8-	=8-
4f\	-ri-	1ryy	1ryy	1ryy	1ryy	1ryy	.	.	1ryy
4e\	.	.	.	.	.	.	.	.	.
4d\	.	.	.	.	.	.	.	.	.
4c\	.	.	.	.	.	.	.	.	.
=9-	=9-	=9-	=9-	=9-	=9-	=9-	=9-	=9-	=9-
2B-X/	.	1ryy	1ryy	1ryy	1ryy	1ryy	.	.	1ryy
2c/	-a	.	.	.	.	.	.	.	.
=10-	=10-	=10-	=10-	=10-	=10-	=10-	=10-	=10-	=10-
1G	Vir-	1ryy	1ryy	1ryy	1ryy	1ryy	.	.	1ryy
=11-	=11-	=11-	=11-	=11-	=11-	=11-	=11-	=11-	=11-
2c/	-go	1ryy	1ryy	1ryy	1ryy	1ryy	2r	.	1ryy
2r	.	.	.	.	.	.	2ee\	ce-	.
=12-	=12-	=12-	=12-	=12-	=12-	=12-	=12-	=12-	=12-
0r	.	1ryy	1ryy	1ryy	1ryy	1ryy	2ee\	-los	1ryy
.	.	.	.	.	.	.	2dd\	as-	.
=13-	=13-	=13-	=13-	=13-	=13-	=13-	=13-	=13-	=13-
.	.	1ryy	1ryy	1ryy	1ryy	1ryy	1dd	-cen-	1ryy
=14-	=14-	=14-	=14-	=14-	=14-	=14-	=14-	=14-	=14-
2r	.	1ryy	1ryy	1ryy	1ryy	1ryy	2cc\	-dit	1ryy
2c/	cae-	.	.	.	.	.	2r	.	.
=15-	=15-	=15-	=15-	=15-	=15-	=15-	=15-	=15-	=15-
2c/	-los	1ryy	1ryy	1ryy	1ryy	1ryy	0r	.	1ryy
2d\	aſ-	.	.	.	.	.	.	.	.
=16-	=16-	=16-	=16-	=16-	=16-	=16-	=16-	=16-	=16-
4e\	-cen-	1ryy	1ryy	1ryy	1ryy	1ryy	.	.	1ryy
4f\	.	.	.	.	.	.	.	.	.
2g\	.	.	.	.	.	.	.	.	.
=17-	=17-	=17-	=17-	=17-	=17-	=17-	=17-	=17-	=17-
2c/	-dit	1ryy	1ryy	1ryy	1ryy	1ryy	2r	.	1ryy
2r	.	.	.	.	.	.	2cc\	ce-	.
=18-	=18-	=18-	=18-	=18-	=18-	=18-	=18-	=18-	=18-
0r	.	1ryy	1ryy	1ryy	1ryy	1ryy	2cc\	-los	1ryy
.	.	.	.	.	.	.	2dd\	as-	.
=19-	=19-	=19-	=19-	=19-	=19-	=19-	=19-	=19-	=19-
.	.	1ryy	1ryy	1ryy	1ryy	1ryy	1cc	-cen-	1ryy
=20-	=20-	=20-	=20-	=20-	=20-	=20-	=20-	=20-	=20-
2r	.	1ryy	1ryy	1ryy	1ryy	1ryy	2b\	-dit	1ryy
2c/	cae-	.	.	.	.	.	2r	.	.
=21-	=21-	=21-	=21-	=21-	=21-	=21-	=21-	=21-	=21-
*custos:B	*	*	*	*	*	*	*	*	*
2c/	-los	1ryy	1ryy	1ryy	1ryy	1ryy	0r	.	1ryy
!LO:LB:g=original	!	!	!	!	!	!	!	!	!
2Bny/	as-	.	.	.	.	.	.	.	.
=22-	=22-	=22-	=22-	=22-	=22-	=22-	=22-	=22-	=22-
1A	-cen-	1ryy	1ryy	1ryy	1ryy	1ryy	.	.	1ryy
=23-	=23-	=23-	=23-	=23-	=23-	=23-	=23-	=23-	=23-
2G/	-di	1ryy	1ryy	1ryy	1ryy	1ryy	2r	.	1ryy
2r	.	.	.	.	.	.	2cc\	gau-	.
=24-	=24-	=24-	=24-	=24-	=24-	=24-	=24-	=24-	=24-
2r	.	1ryy	1ryy	1ryy	1ryy	1ryy	1cc	-de-	1ryy
2c/	gau-	.	.	.	.	.	.	.	.
=25-	=25-	=25-	=25-	=25-	=25-	=25-	=25-	=25-	=25-
*	*	*	*	*	*	*	*custos:cc	*	*
1e	-de-	1ryy	1ryy	1ryy	1ryy	1ryy	2cc\	-te	1ryy
!	!	!	!	!	!	!	!LO:LB:g=original	!	!
.	.	.	.	.	.	.	4r	.	.
.	.	.	.	.	.	.	4cc\	gau-	.
=26-	=26-	=26-	=26-	=26-	=26-	=26-	=26-	=26-	=26-
1c	-te	1ryy	1ryy	1ryy	1ryy	1ryy	1cc	-de-	1ryy
=27-	=27-	=27-	=27-	=27-	=27-	=27-	=27-	=27-	=27-
2r	.	1ryy	1ryy	1ryy	1ryy	1ryy	1cc	-te	1ryy
2c/	qui-	.	.	.	.	.	.	.	.
=28-	=28-	=28-	=28-	=28-	=28-	=28-	=28-	=28-	=28-
2A/	-a	1ryy	1ryy	1ryy	1ryy	1ryy	0r	.	1ryy
2d\	cum	.	.	.	.	.	.	.	.
=29-	=29-	=29-	=29-	=29-	=29-	=29-	=29-	=29-	=29-
1A	Chri-	1ryy	1ryy	1ryy	1ryy	1ryy	.	.	1ryy
=30-	=30-	=30-	=30-	=30-	=30-	=30-	=30-	=30-	=30-
2d\	-sto	1ryy	1ryy	1ryy	1ryy	1ryy	2r	.	1ryy
2r	.	.	.	.	.	.	2cc\	qui-	.
=31-	=31-	=31-	=31-	=31-	=31-	=31-	=31-	=31-	=31-
0r	.	1ryy	1ryy	1ryy	1ryy	1ryy	2a\	-a	1ryy
.	.	.	.	.	.	.	2b\	cum	.
=32-	=32-	=32-	=32-	=32-	=32-	=32-	=32-	=32-	=32-
.	.	1ryy	1ryy	1ryy	1ryy	1ryy	1cc	chris-	1ryy
=33-	=33-	=33-	=33-	=33-	=33-	=33-	=33-	=33-	=33-
2r	.	1ryy	1ryy	1ryy	1ryy	1ryy	2b\	-to	1ryy
2c/	qui-	.	.	.	.	.	2r	.	.
=34-	=34-	=34-	=34-	=34-	=34-	=34-	=34-	=34-	=34-
2f\	-a	1ryy	1ryy	1ryy	1ryy	1ryy	0r	.	1ryy
2g\	cum	.	.	.	.	.	.	.	.
=35-	=35-	=35-	=35-	=35-	=35-	=35-	=35-	=35-	=35-
4c/	Chri-	1ryy	1ryy	1ryy	1ryy	1ryy	.	.	1ryy
4d\	.	.	.	.	.	.	.	.	.
4e\	.	.	.	.	.	.	.	.	.
4f\	.	.	.	.	.	.	.	.	.
=36-	=36-	=36-	=36-	=36-	=36-	=36-	=36-	=36-	=36-
2g\	-ſto	1ryy	1ryy	1ryy	1ryy	1ryy	2r	.	1ryy
*custos:f	*	*	*	*	*	*	*	*	*
2c/	qui-	.	.	.	.	.	2cc\	qui-	.
!LO:LB:g=original	!	!	!	!	!	!	!	!	!
=37-	=37-	=37-	=37-	=37-	=37-	=37-	=37-	=37-	=37-
2f\	-a	1ryy	1ryy	1ryy	1ryy	1ryy	2cc\	-a	1ryy
2c/	cum	.	.	.	.	.	2.cc\	cum	.
=38-	=38-	=38-	=38-	=38-	=38-	=38-	=38-	=38-	=38-
1g	Chri-	1ryy	1ryy	1ryy	1ryy	1ryy	.	.	1ryy
.	.	.	.	.	.	.	8b\L	.	.
.	.	.	.	.	.	.	8a\J	.	.
.	.	.	.	.	.	.	2b\	chriſ-	.
=39-	=39-	=39-	=39-	=39-	=39-	=39-	=39-	=39-	=39-
*M3/2	*	*M3/2	*M3/2	*M3/2	*M3/2	*M3/2	*M3/2	*	*M3/2
2c/	-ſto	1.ryy	1.ryy	1.ryy	1.ryy	1.ryy	1cc	-to	1.ryy
2c/	re-	.	.	.	.	.	.	.	.
2B/	-gnat	.	.	.	.	.	2r	.	.
=40-	=40-	=40-	=40-	=40-	=40-	=40-	=40-	=40-	=40-
1c	in	1.ryy	1.ryy	1.ryy	1.ryy	1.ryy	1cc	reg-	1.ryy
2f\	ae-	.	.	.	.	.	2cc\	-nat	.
=41-	=41-	=41-	=41-	=41-	=41-	=41-	=41-	=41-	=41-
1c	-ter-	1.ryy	1.ryy	1.ryy	1.ryy	1.ryy	1cc	in	1.ryy
2G/	-num	.	.	.	.	.	2b\	ae-	.
=42-	=42-	=42-	=42-	=42-	=42-	=42-	=42-	=42-	=42-
1c	reg-	1.ryy	1.ryy	1.ryy	1.ryy	1.ryy	1cc	-ter-	1.ryy
!	!	!	!	!	!	!	!LO:TX:t=P:global:problem=oddech jako rozdzielacz słów	!	!
2g\	-nat	.	.	.	.	.	2b,<\	-num	.
=43-	=43-	=43-	=43-	=43-	=43-	=43-	=43-	=43-	=43-
1c	in	1.ryy	1.ryy	1.ryy	1.ryy	1.ryy	1cc	reg-	1.ryy
*	*	*	*	*	*	*	*custos:cc	*	*
2f\	ae-	.	.	.	.	.	2cc\	-nat	.
!	!	!	!	!	!	!	!LO:LB:g=original	!	!
=44-	=44-	=44-	=44-	=44-	=44-	=44-	=44-	=44-	=44-
1c	-ter-	1.ryy	1.ryy	1.ryy	1.ryy	1.ryy	1cc	in	1.ryy
2G/	-num	.	.	.	.	.	2b\	ae-	.
=45-	=45-	=45-	=45-	=45-	=45-	=45-	=45-	=45-	=45-
2c/	in	1.ryy	1.ryy	1.ryy	1.ryy	1.ryy	1cc	-ter-	1.ryy
2c/	ae-	.	.	.	.	.	.	.	.
*custos:c	*	*	*	*	*	*	*	*	*
2G/	-ter-	.	.	.	.	.	2b\	-num	.
!LO:LB:g=original	!	!	!	!	!	!	!	!	!
=46-	=46-	=46-	=46-	=46-	=46-	=46-	=46-	=46-	=46-
*M2/2	*	*M2/2	*M2/2	*M2/2	*M2/2	*M2/2	*M2/2	*	*M2/2
*met(C|)	*	*met(C|)	*met(C|)	*met(C|)	*met(C|)	*met(C|)	*met(C|)	*	*met(C|)
2c/	-num	1ryy	1ryy	1ryy	1ryy	1ryy	0r	.	1ryy
2c/	in	.	.	.	.	.	.	.	.
=47-	=47-	=47-	=47-	=47-	=47-	=47-	=47-	=47-	=47-
2f\	ae-	1ryy	1ryy	1ryy	1ryy	1ryy	.	.	1ryy
2g\	-ter-	.	.	.	.	.	.	.	.
=48-	=48-	=48-	=48-	=48-	=48-	=48-	=48-	=48-	=48-
2c/	-num	1ryy	1ryy	1ryy	1ryy	1ryy	2r	.	1ryy
2r	.	.	.	.	.	.	2cc\	in	.
=49-	=49-	=49-	=49-	=49-	=49-	=49-	=49-	=49-	=49-
1r	.	1ryy	1ryy	1ryy	1ryy	1ryy	2cc\	ae-	1ryy
.	.	.	.	.	.	.	2b\	-ter-	.
=50-	=50-	=50-	=50-	=50-	=50-	=50-	=50-	=50-	=50-
2r	.	1ryy	1ryy	1ryy	1ryy	1ryy	2cc\	-num	1ryy
2c/	in	.	.	.	.	.	2r	.	.
=51-	=51-	=51-	=51-	=51-	=51-	=51-	=51-	=51-	=51-
2f\	ae-	1ryy	1ryy	1ryy	1ryy	1ryy	1r	.	1ryy
2g\	-ter-	.	.	.	.	.	.	.	.
=52-	=52-	=52-	=52-	=52-	=52-	=52-	=52-	=52-	=52-
2c/	-num	1ryy	1ryy	1ryy	1ryy	1ryy	2r	.	1ryy
2r	.	.	.	.	.	.	2dd\	in	.
=53-	=53-	=53-	=53-	=53-	=53-	=53-	=53-	=53-	=53-
1r	.	1ryy	1ryy	1ryy	1ryy	1ryy	2ee\	ae-	1ryy
.	.	.	.	.	.	.	2dd\	-ter-	.
=54-	=54-	=54-	=54-	=54-	=54-	=54-	=54-	=54-	=54-
2r	.	1ryy	1ryy	1ryy	1ryy	1ryy	2dd\	-num	1ryy
2c/	in	.	.	.	.	.	2r	.	.
=55-	=55-	=55-	=55-	=55-	=55-	=55-	=55-	=55-	=55-
2F/	ae-	1ryy	1ryy	1ryy	1ryy	1ryy	1r	.	1ryy
2G/	-te-	.	.	.	.	.	.	.	.
=56-	=56-	=56-	=56-	=56-	=56-	=56-	=56-	=56-	=56-
2c/	-num	1ryy	1ryy	1ryy	1ryy	1ryy	2r	.	1ryy
1c\	in	.	.	.	.	.	1cc\	in	.
=57-	=57-	=57-	=57-	=57-	=57-	=57-	=57-	=57-	=57-
.	.	1ryy	1ryy	1ryy	1ryy	1ryy	.	.	1ryy
2c/	ae-	.	.	.	.	.	2cc\	e-	.
=58-	=58-	=58-	=58-	=58-	=58-	=58-	=58-	=58-	=58-
0f	-ter-	1ryy	1ryy	1ryy	1ryy	1ryy	2.a\	-ter-	1ryy
.	.	.	.	.	.	.	4b\	.	.
=59-	=59-	=59-	=59-	=59-	=59-	=59-	=59-	=59-	=59-
.	.	1ryy	1ryy	1ryy	1ryy	1ryy	1cc	.	1ryy
=60-	=60-	=60-	=60-	=60-	=60-	=60-	=60-	=60-	=60-
*M3/2	*	*M3/2	*M3/2	*M3/2	*M3/2	*M3/2	*M3/2	*	*M3/2
2c/	-num	1ryy	1ryy	1ryy	1ryy	1ryy	2cc,<\	-num	1ryy
2c/	A-	.	.	.	.	.	2cc\	Al-	.
*custos:g	*	*	*	*	*	*	*	*	*
2c/	-le-	2ryy	2ryy	2ryy	2ryy	2ryy	2cc\	-le-	2ryy
!LO:LB:g=original	!	!	!	!	!	!	!	!	!
=61-	=61-	=61-	=61-	=61-	=61-	=61-	=61-	=61-	=61-
1g	-lu-	1.ryy	1.ryy	1.ryy	1.ryy	1.ryy	1b	-lu-	1.ryy
!LO:TX:t=P:global:problem=oddech jako rozdzielacz słów	!	!	!	!	!	!	!	!	!
2c,</	-ia	.	.	.	.	.	2cc,<\	-ia	.
=62-	=62-	=62-	=62-	=62-	=62-	=62-	=62-	=62-	=62-
2f\	Al-	1.ryy	1.ryy	1.ryy	1.ryy	1.ryy	2cc\	Al-	1.ryy
2c/	-le-	.	.	.	.	.	2cc\	-le-	.
*	*	*	*	*	*	*	*custos:cc	*	*
2g\	-lu-	.	.	.	.	.	2b\	-lu-	.
!	!	!	!	!	!	!	!LO:LB:g=original	!	!
=63-	=63-	=63-	=63-	=63-	=63-	=63-	=63-	=63-	=63-
2c/	-ia	1.ryy	1.ryy	1.ryy	1.ryy	1.ryy	2cc\	-ia	1.ryy
2c/	Al-	.	.	.	.	.	2r	.	.
2g\	-le-	.	.	.	.	.	2r	.	.
=64-	=64-	=64-	=64-	=64-	=64-	=64-	=64-	=64-	=64-
1a	-lu-	1.ryy	1.ryy	1.ryy	1.ryy	1.ryy	0.r	.	1.ryy
2e\	-ia	.	.	.	.	.	.	.	.
=65-	=65-	=65-	=65-	=65-	=65-	=65-	=65-	=65-	=65-
2f\	Al-	1.ryy	1.ryy	1.ryy	1.ryy	1.ryy	.	.	1.ryy
2c/	-le-	.	.	.	.	.	.	.	.
2g\	-lu-	.	.	.	.	.	.	.	.
=66-	=66-	=66-	=66-	=66-	=66-	=66-	=66-	=66-	=66-
*M2/2	*	*M2/2	*M2/2	*M2/2	*M2/2	*M2/2	*M2/2	*	*M2/2
*met(C|)	*	*met(C|)	*met(C|)	*met(C|)	*met(C|)	*met(C|)	*met(C|)	*	*met(C|)
2c/	-ia	1ryy	1ryy	1ryy	1ryy	1ryy	2r	.	1ryy
2.c/	Al-	.	.	.	.	.	1cc\	Al-	.
=67-	=67-	=67-	=67-	=67-	=67-	=67-	=67-	=67-	=67-
.	.	1ryy	1ryy	1ryy	1ryy	1ryy	.	.	1ryy
4d\	-le-	.	.	.	.	.	.	.	.
4e\	.	.	.	.	.	.	2.cc\	-le-	.
4f\	.	.	.	.	.	.	.	.	.
=68-	=68-	=68-	=68-	=68-	=68-	=68-	=68-	=68-	=68-
1g	-lu-	1ryy	1ryy	1ryy	1ryy	1ryy	.	.	1ryy
.	.	.	.	.	.	.	8b\L	.	.
.	.	.	.	.	.	.	8a\J	.	.
.	.	.	.	.	.	.	2b\	-lu-	.
=69-	=69-	=69-	=69-	=69-	=69-	=69-	=69-	=69-	=69-
2c/	-ia	1ryy	1ryy	1ryy	1ryy	1ryy	2cc,<\	-ia	1ryy
1f\	Al-	.	.	.	.	.	1cc\	Al-	.
=70-	=70-	=70-	=70-	=70-	=70-	=70-	=70-	=70-	=70-
.	.	1ryy	1ryy	1ryy	1ryy	1ryy	.	.	1ryy
2c/	-le-	.	.	.	.	.	2cc\	-le-	.
=71-	=71-	=71-	=71-	=71-	=71-	=71-	=71-	=71-	=71-
0f	-lu-	1ryy	1ryy	1ryy	1ryy	1ryy	2.a\	-lu-	1ryy
.	.	.	.	.	.	.	4b\	.	.
=72-	=72-	=72-	=72-	=72-	=72-	=72-	=72-	=72-	=72-
.	.	1ryy	1ryy	1ryy	1ryy	1ryy	1cc	.	1ryy
=73-	=73-	=73-	=73-	=73-	=73-	=73-	=73-	=73-	=73-
0cl	-ia	0ryy	0ryy	0ryy	0ryy	0ryy	0ccl	-ia;	0ryy
==	==	==	==	==	==	==	==	==	==
*-	*-	*-	*-	*-	*-	*-	*-	*-	*-
!!!system-decoration: [s1,s2,s3,s4][s5,s6,s7,s8]
!!!RDF**kern: < = below
!!!RDF**kern: l = terminal long
!!!AIN: 1 alto 2 bass 5 soprn
!!!ENC: Andrzej Gręziak
!!!END: 2021-11-03
!!!ENC: Marta Lawrence
!!!END: 2021-11-09
